X: 1734
T: Mum's Mazurka
B: australian traditional tunes wiki
M:3/4
L:1/8
R: Mazurka
Q: 1/4=100
K:D
V:1 
F>A|:"D"d2 F2 A2|"A7"e3 d ce|b2 a2 (3faf|"D"A3 G F>A|
d2 F2 A2|"A7"e3 d c>e|b2 a>g Bc|1"D"d4 F>A:|2"D"d4 fa||
|:"D"b>a fd fa|b>a fd ef|"Em"ge B2 e2|"D"f>e d2 fa|
b>a fd fa|b>a fd ef|"A"gf eA ce|"D"f>e d2fa:|
% abcbook-tune_id 6342d53a9bb6850b8161311b


% abcbook-boost 0
% abcbook-tablature 
% abcbook-transpose 
% abcbook-lastupdated 1665324380790
% abcbook-soundfonts 
% abcbook-repeats 1
% NFF Book 2006

